X: 482
T: The Sprite
C: J.S. Skinner arr. Bert Murray
R: jig
B: Bert Murray's "Bon Accord Collection" 1999 p.48
%
Z: 2011 John Chambers <jc:trillian.mit.edu>
M: 6/8
L: 1/8
K: D
uB |\
A>FD d2c | c2B A2F | G>AB A>Fd | F>EE E2B |\
A>FD d2c | c2B A>GF | G>AB A>FD | E3 D2 :|
uA |\
F>ED F>GA | B>cd A>FD | G2B A>FD | A>GF E2A |\
F>ED F>GA | B>cd A>FD | F>DF A>GF | E3 (D2 ||
A) |\
F>ED F>GA | B>cd A>FD | G>AB A>FD | E>F^G A2B |\
A>FD d2c | c2B A>GF | G>AB A>FD | E3 D2 |]

%%sep 2 1 500

